!!!COM: Gabriel Faure/
!!!CNT: Francais
!!!TXO: Francais
!!!OTL: "Mandoline"
!!!LYR: Verlaine
!!!OPR: Cinq Me/lodies
!!!OPS: Op. 58
!!!ONM: No. 1
!!!ENC: Emily Thomas
!!!YOR: CD Sheet Music French Art Songs, The Ultimate Collection
!!!YOR: CD Sheet Music, LLC 2003
!!!ODT: 1891/
!!NB: Vocal melody and text encoded.
**kern	**silbe
=1	=1
*clefG2	*
*k[f#]	*
*M4/4	*
*MM[Allegretto moderato]	*
1r	.
=2	=2
1r	.
=3	=3
{8g	{Les
8a	don-
[4b	-neurs
8b]	|
8b	de
12cc	se/
12b	|
12cc	-re/-
=4	=4
2dd	-na-
[4dd	-des
8dd]}	|}
8r	.
=5	=5
{8g	{Et
8a	les
[4b	bel-
8b]	|
8cc	-les
12dd	e/-
12cc	|
12b	-cou-
=6	=6
2ee	-teu-
4b}	-ses}
8r	.
{8b	{E/-
=7	=7
8ee	-chan-
8b	-gent
12b	des
12a	pro-
12b	-pos
4cc	fa-
8a}	-des,}
{8cc	{Sous
=8	=8
12b	les
12a	|
12b	ra-
[4g	-mu-
8g]	|
8b	|
8a	-res
8g	chan-
=9	=9
16f#	-teu-
16g#	|
[8a#	|
16a#]	|
16b	|
[8cc#	|
16cc#]	|
16dd#	|
16cc#	|
16b	|
16a#	|
16b	|
16a#	|
16g#	|
=10	=10
16a#	|
16#	|
[8f#	-ses
4f#_	|
4f#_	|
8f#]}	|}
8r	.
=11	=11
{8g	{C'est
8a	Tir-
[4b	-cis
8b]	|
8b	et
12cc	c'est
12b	|
12cc	A-
=12	=12
[2dd	-min-
8dd]	|
8cc	|
4b}	-te}
=13	=13
4r	.
{8b	{Et
8dd	c'est
8cc	l'e/-
8g	-ter-
8a	-nel
8cc	Cli-
=14	=14
4b	-tan-
4.g	-dre
8a	Et
8b	c'est
8g	Da-
=15	=15
4a	0mis
8b	qui,
8g	pour
4a	main-
8b	-te
8cc#	cru-
=16	=16
4dd	-el-
4.a#}	-le,}
{8b	{Fit
8cc#	maint
8an	vers
=17	=17
16f#	ten-
16g	|
[8a	|
16a]	|
16b	|
[8cc#	|
16cc#]	|
16dd	|
16cc#	|
16b	|
16cc#	|
16b	|
16a	|
16g	|
=18	=18
16a	|
16g	|
[8f#	-dre
4f#_	|
4f#_	|
8f#]}	|}
8r	.
=19	=19
{4dd	{Leurs
8ee	cour-
8dd	-tes
12ccn	ves-
12b	-tes
12a	de
4cc	soie,
=20	=20
4b	Leurs
8a	lon-
8g	-gues
12f#	ro-
12e	-bes
12f#	a\
4d}	queues,}
=21	=21
{4dd	{Leur
8cc	e/-
8dd	le/-
12b-	-gan-
12a	-ce,
12g	leur
[4a	joie
=22	=22
8a]}	|}
8r	.
{8a	{Et
8b-	leurs
4.fn	mol-
8fn	-le/s-
=23	=23
4.fn	-om-
8fn	-bres
[2fn	bleues
=24	=24
8fn]}	|}
8r	.
{8.ddn	{Tour-
16dd	-bil-
8cc	-lon-
8cc	-nent
8b-	dans
8b-	l'ex-
=25	=25
8.a	-ta-
16a	-se
8b-	D'u-
8b-	-ne
8.a	lu-
16a	-ne
8.g	rose
16g	et
=26	=26
2fn	gri-
2fn}	-se,}
=27	=27
4r	.
{8a-	{Et
8a-	la
8g	man-
8g	-do-
8.fn	-li-
16f	-ne
=28	=28
8.e	ja-
16e	-se
8fn	Par-
8fn	-mi
8e	les
8e	fris-
8.e-	-sons
16e-	de
=29	=29
2d	bri-
4d}	-se.}
4r	.
=30	=30
{8g	{Les
8a	don-
4.b	-neurs
8b	de
12cc	se/-
12b	|
12cc	-re/-
=31	=31
2dd	-na-
[4dd	-des
8dd]}	|}
8r	.
=32	=32
{8g	{Et
8a	les
[4b	bel-
8b]	|
8cc	-les
12dd	e/-
12cc	|
12b	-cou-
=33	=33
4ee	-teu-
[4b	-ses
8b]}	|}
8r	.
8r	.
{8g	{E/-
=34	=34
4b	-chan-
[4g	-gent
8g]	|
8b	des
8a	pro-
8g	-pos
=35	=35
4f#	fa-
4f#}	-des,}
8r	.
{8e#	{Sous
8g#	les
8b	ra-
=36	=36
2f#	-mu-
4.f#	-res
8f#	chan-
=37	=37
1b	-teu-
=38	=38
[2b	-ses.
4b]}	|}
4r	.
==	==
*-	*-
